packages/common/src/icons/live.svg

<svg width="1em" height="1em" viewBox="0 0 40 40" xmlns="http://www.w3.org/2000/svg">
<path fill-rule="evenodd" clip-rule="evenodd" d="M33.125 33.125C35 31.25 35 27.5 35 20C35 12.5 35 8.75 33.125 6.875C31.25 5 27.5 5 20 5C12.5 5 8.75 5 6.875 6.875C5 8.75 5 12.5 5 20C5 27.5 5 31.25 6.875 33.125C8.75 35 12.5 35 20 35C27.5 35 31.25 35 33.125 33.125ZM19.375 16.2963C19.375 17.9259 18.0771 19.2593 16.4583 19.2593C14.8542 19.2593 13.5417 17.9259 13.5417 16.2963C13.5417 14.6667 14.8542 13.3333 16.4583 13.3333C18.0771 13.3333 19.375 14.6667 19.375 16.2963ZM28.125 16.2963C28.125 17.9259 26.8271 19.2593 25.2083 19.2593C23.6042 19.2593 22.2917 17.9259 22.2917 16.2963C22.2917 14.6667 23.5896 13.3333 25.2083 13.3333C26.8271 13.3333 28.125 14.6667 28.125 16.2963ZM9.16667 24.7407C9.16667 22.2667 14.0229 21.037 16.4583 21.037C18.8938 21.037 23.75 22.2667 23.75 24.7407C23.75 25.8044 22.8877 26.6667 21.8241 26.6667H11.0926C10.0289 26.6667 9.16667 25.8044 9.16667 24.7407ZM24.878 21.9657C24.5807 21.6198 24.7522 21.037 25.2083 21.037C27.6437 21.037 32.5 22.2667 32.5 24.7407C32.5 25.8044 31.6377 26.6667 30.5741 26.6667H27.8634C26.7998 26.6667 25.9375 25.8044 25.9375 24.7407C25.9375 23.6421 25.5297 22.7243 24.878 21.9657Z" fill="currentColor"/>
</svg>

<svg width="1em" height="1em" viewBox="0 0 40 40" xmlns="http://www.w3.org/2000/svg"><path fill-rule="evenodd" clip-rule="evenodd" d="M33.125 33.125C35 31.25 35 27.5 35 20s0-11.25-1.875-13.125S27.5 5 20 5 8.75 5 6.875 6.875 5 12.5 5 20s0 11.25 1.875 13.125S12.5 35 20 35s11.25 0 13.125-1.875zm-13.75-16.829c0 1.63-1.298 2.963-2.917 2.963-1.604 0-2.916-1.333-2.916-2.963 0-1.63 1.312-2.963 2.916-2.963 1.62 0 2.917 1.334 2.917 2.963zm8.75 0c0 1.63-1.298 2.963-2.917 2.963-1.604 0-2.916-1.333-2.916-2.963 0-1.63 1.298-2.963 2.916-2.963 1.62 0 2.917 1.334 2.917 2.963zM9.167 24.741c0-2.474 4.856-3.704 7.291-3.704 2.436 0 7.292 1.23 7.292 3.704a1.926 1.926 0 01-1.926 1.926H11.093a1.926 1.926 0 01-1.926-1.926zm15.711-2.775c-.297-.346-.126-.929.33-.929 2.436 0 7.292 1.23 7.292 3.704a1.926 1.926 0 01-1.926 1.926h-2.71a1.926 1.926 0 01-1.927-1.926c0-1.099-.407-2.017-1.059-2.775z" fill="currentColor"/></svg>
